X:138 
T:Mister Henry's Single Jig*  
B:CRE5.083 (gan ainm)
F:file ID: cre.5/138mister_h
M:12/8
Q:160
R:jig
K:D
dcB|A3 ABc d2F F2G|A3 AGF G2E EFG|
A3 ABc d2e f2e|dcB ABc d3:|
d2e|f3 fed cAA A2d|fef def gfg a2g|
fed fed efg a2g|fed ABc d3:|

%%%

